X:1
T: Miss Hanbury's Fancy
C:
R:Reel
Q: 232
K:Bb
M:4/4
L:1/8
|:G|FD FB d2 cB|AB cd ed cd|Bb fd ge cB|A1/2B1/2c Fe dB BG|
FD FB d2 cB|AB cd ed cd|Bb fd ge cB|A1/2B1/2c Fe dB Bg|
fg af bf df|eg ce df Bg|fg af bg =eb|af g=e f2 fg|
fd gf ec fe|dB ed cA FE|Db fd ge cB|A1/2B1/2c FA BB, B,:|
